X:2838
T:Indian Princess     %Tune name
C: Colin Hume     %Tune composer
N:     %Tune infos
Q:1/4=167     %Tempo
O:England
M:C|     %Meter
L:1/8     %
K:F
"F"F4 f4 | "Am"e6 c2 | "Bb"d2 B2 F2 d2 | "F"c6 d2 | "C"c2 B4 c2 |
"F"B2 A4 Bc | "Bb"d2 B2 G2 F2 | "C"E2 C2 D2 E2 | "F"F4 f4 | "Am"e6 c2 |
"Bb"d2 B2 F2 d2 | "F"c6 d2 | "Gm"c2 B4 "C"c2 | "F"B2 A4 Bc | "Bb"d2 B2 "C"G2 E2 |
"F"F6 F2 || "Bb"d3 e f2 g2 | f2 d4 AB | "F"c2 A2 A3 G | "F"A2 c4 F2 |
"Bb"d3 e f2 g2 | "Dm"a2 f4 ed | "C"e2 c2 "G"d2 =B2 | "C"c6 c2 | "Bb"d3 c B2 d2 |
"Am"c3 B A2 c2 | "Gm"B3 A G2 D2 | "C"E6 C2 | "F"FGAB c2 F2 | "Bb"Bcde f2 d2 |
"F"c2 A2 "C"G3 F | "F"F8 |]
